svg/Pictogram/pictograms-nps-winter-chair_lift-ski_lift.svg

<svg xmlns="http://www.w3.org/2000/svg" viewBox="0 0 256 256"><path d="m0 0c-.541 0-.981-.44-.981-.981v-7.522c0-.54.44-.979.981-.979h7.521c.541 0 .981.439.981.979v7.522c0 .541-.44.981-.981.981h-7.521" fill="#fff" transform="matrix(25.90307 0 0-25.90307 30.605 5.188)"/><path d="m0 0c.652 0 1.182.527 1.182 1.18v7.521c0 .653-.53 1.182-1.182 1.182h-7.521c-.652 0-1.181-.529-1.181-1.182v-7.521c0-.653.529-1.18 1.181-1.18h7.521" transform="matrix(25.90307 0 0-25.90307 225.41 256)"/><g fill="#fff"><path d="m0 0c.326.107.502.457.395.783l-.237-.076c.065-.195-.043-.406-.236-.471l-6.214-2.117.08-.234 6.212 2.115" transform="matrix(25.90307 0 0-25.90307 223.28 181.07)"/><path d="m0 0c.341.1.536.459.437.801-.1.342-.458.537-.8.437-.342-.099-.539-.459-.438-.8.1-.342.457-.538.801-.438" transform="matrix(25.90307 0 0-25.90307 75.08 86.31)"/><path d="m0 0c-.34.648.636 1.174.995.545l.701-1.332 1.334.379c.221.062.526-.178.526-.461l.007-1.899c.002-.47-.697-.472-.697.004-.002.442-.013 1.383-.013 1.383l-1.393-.418c-.305-.088-.557.065-.676.289l-.784 1.51" transform="matrix(25.90307 0 0-25.90307 68.24 109.48)"/><path d="m0 0v4h-.279v-4.08l.279.076" transform="matrix(25.90307 0 0-25.90307 124.12 117.28)"/><path d="m0 0c-.191.377.303.627.494.25l.603-1.18c.131-.244.386-.41.681-.41.092 0 .178.024.262.041l.76.223c.402.121.558-.41.152-.529l-.799-.233c-.119-.037-.248-.057-.381-.057-.513 0-.958.291-1.176.717l-.596 1.178" transform="matrix(25.90307 0 0-25.90307 51.651 131.9)"/></g></svg>

<?xml version="1.0" encoding="UTF-8" standalone="no"?>
<!-- Created with Inkscape (http://www.inkscape.org/) -->
<svg
   xmlns:dc="http://purl.org/dc/elements/1.1/"
   xmlns:cc="http://creativecommons.org/ns#"
   xmlns:rdf="http://www.w3.org/1999/02/22-rdf-syntax-ns#"
   xmlns:svg="http://www.w3.org/2000/svg"
   xmlns="http://www.w3.org/2000/svg"
   xmlns:sodipodi="http://sodipodi.sourceforge.net/DTD/sodipodi-0.dtd"
   xmlns:inkscape="http://www.inkscape.org/namespaces/inkscape"
   width="256"
   height="256"
   id="svg8302"
   sodipodi:version="0.32"
   inkscape:version="0.46"
   version="1.0"
   sodipodi:docname="pictograms-nps-winter-chair_lift-ski_lift-2.svg"
   inkscape:output_extension="org.inkscape.output.svg.inkscape">
  <defs
     id="defs8304">
    <inkscape:perspective
       sodipodi:type="inkscape:persp3d"
       inkscape:vp_x="0 : 526.18109 : 1"
       inkscape:vp_y="0 : 1000 : 0"
       inkscape:vp_z="744.09448 : 526.18109 : 1"
       inkscape:persp3d-origin="372.04724 : 350.78739 : 1"
       id="perspective8310" />
  </defs>
  <sodipodi:namedview
     id="base"
     pagecolor="#ffffff"
     bordercolor="#666666"
     borderopacity="1.0"
     gridtolerance="10000"
     guidetolerance="10"
     objecttolerance="10"
     inkscape:pageopacity="0.0"
     inkscape:pageshadow="2"
     inkscape:zoom="0.7"
     inkscape:cx="61.634556"
     inkscape:cy="136.73676"
     inkscape:document-units="px"
     inkscape:current-layer="layer1"
     showgrid="false"
     inkscape:window-width="738"
     inkscape:window-height="674"
     inkscape:window-x="0"
     inkscape:window-y="198" />
  <metadata
     id="metadata8307">
    <rdf:RDF>
      <cc:Work
         rdf:about="">
        <dc:format>image/svg+xml</dc:format>
        <dc:type
           rdf:resource="http://purl.org/dc/dcmitype/StillImage" />
      </cc:Work>
    </rdf:RDF>
  </metadata>
  <g
     inkscape:label="Layer 1"
     inkscape:groupmode="layer"
     id="layer1">
    <g
       id="g5430"
       transform="matrix(25.903066,0,0,-25.903066,30.604576,5.1880733)">
      <path
         d="M 0,0 C -0.541,0 -0.981,-0.44 -0.981,-0.981 L -0.981,-8.503 C -0.981,-9.043 -0.541,-9.482 0,-9.482 L 7.521,-9.482 C 8.062,-9.482 8.502,-9.043 8.502,-8.503 L 8.502,-0.981 C 8.502,-0.44 8.062,0 7.521,0 L 0,0 z"
         style="fill:#ffffff;fill-opacity:1;fill-rule:nonzero;stroke:none"
         id="path5432" />
    </g>
    <g
       id="g5434"
       transform="matrix(25.903066,0,0,-25.903066,225.40848,256)">
      <path
         d="M 0,0 C 0.652,0 1.182,0.527 1.182,1.18 L 1.182,8.701 C 1.182,9.354 0.652,9.883 0,9.883 L -7.521,9.883 C -8.173,9.883 -8.702,9.354 -8.702,8.701 L -8.702,1.18 C -8.702,0.527 -8.173,0 -7.521,0 L 0,0 z"
         style="fill:#000000;fill-opacity:1;fill-rule:nonzero;stroke:none"
         id="path5436" />
    </g>
    <g
       id="g5438"
       transform="matrix(25.903066,0,0,-25.903066,223.28443,181.07238)">
      <path
         d="M 0,0 C 0.326,0.107 0.502,0.457 0.395,0.783 L 0.158,0.707 C 0.223,0.512 0.115,0.301 -0.078,0.236 L -6.292,-1.881 L -6.212,-2.115 L 0,0 z"
         style="fill:#ffffff;fill-opacity:1;fill-rule:nonzero;stroke:none"
         id="path5440" />
    </g>
    <g
       id="g5442"
       transform="matrix(25.903066,0,0,-25.903066,75.075167,86.313574)">
      <path
         d="M 0,0 C 0.341,0.1 0.536,0.459 0.437,0.801 C 0.337,1.143 -0.021,1.338 -0.363,1.238 C -0.705,1.139 -0.902,0.779 -0.801,0.438 C -0.701,0.096 -0.344,-0.1 0,0"
         style="fill:#ffffff;fill-opacity:1;fill-rule:nonzero;stroke:none"
         id="path5444" />
    </g>
    <g
       id="g5446"
       transform="matrix(25.903066,0,0,-25.903066,68.244425,109.48397)">
      <path
         d="M 0,0 C -0.34,0.648 0.636,1.174 0.995,0.545 L 1.696,-0.787 L 3.03,-0.408 C 3.251,-0.346 3.556,-0.586 3.556,-0.869 L 3.563,-2.768 C 3.565,-3.238 2.866,-3.24 2.866,-2.764 C 2.864,-2.322 2.853,-1.381 2.853,-1.381 L 1.46,-1.799 C 1.155,-1.887 0.903,-1.734 0.784,-1.51 L 0,0 z"
         style="fill:#ffffff;fill-opacity:1;fill-rule:nonzero;stroke:none"
         id="path5448" />
    </g>
    <g
       id="g5450"
       transform="matrix(25.903066,0,0,-25.903066,124.125,117.27603)">
      <path
         d="M 0,0 L 0,4.004 L -0.279,4.004 L -0.279,-0.076 L 0,0 z"
         style="fill:#ffffff;fill-opacity:1;fill-rule:nonzero;stroke:none"
         id="path5452" />
    </g>
    <g
       id="g5454"
       transform="matrix(25.903066,0,0,-25.903066,51.650921,131.89551)">
      <path
         d="M 0,0 C -0.191,0.377 0.303,0.627 0.494,0.25 L 1.097,-0.93 C 1.228,-1.174 1.483,-1.34 1.778,-1.34 C 1.87,-1.34 1.956,-1.316 2.04,-1.299 L 2.8,-1.076 C 3.202,-0.955 3.358,-1.486 2.952,-1.605 L 2.153,-1.838 C 2.034,-1.875 1.905,-1.895 1.772,-1.895 C 1.259,-1.895 0.814,-1.604 0.596,-1.178 L 0,0 z"
         style="fill:#ffffff;fill-opacity:1;fill-rule:nonzero;stroke:none"
         id="path5456" />
    </g>
  </g>
</svg>
